X:1
T:Title
%%score ( 1 2 ) 3
L:1/8
Q:1/4=88
M:6/8
K:Bb
V:1 treble nm="Grand Piano, Soprano"
V:2 treble 
V:3 bass nm="Choir Pad, Bass"
V:1
 [B,D]/[CE]/ [DF]2 [DF] [EG]2 | [DF][Fd]>[=E_d] [F=d] [DB]2 | [FB][EB]>[EA] [EB][Gc][GB] | %3
w: By~James~Henry~Stanley * * * *|||
 [EG] [DF]2- [DF]2- [DF]/ z/ | [B,D]/[CE]/ [DF]2 [DF] [EG]2 | [DF][FB][FB] [Fc][Fd][Fd] | %6
w: |||
 [Ec][DB]<[DB] [FB][Ec][DB] | [CA] [DB]2- [DB]2- [DB]/ z/ | z3 z F2- | F6 | %10
w: ||||
 [DF][DB]<[DB] [DB][GB][GB] | [Gc] [^Fd]2- [Fd]2- [Fd]/ z/ | [DF][Fd]>[=E_d] [F=d] [DB]2 | %13
w: |||
 [FB]/[FB]/cB [EG] [DF]2 | [DF][DF][FB] [Gc] [Fd]2 | [DB]/[Ec]/ [DB]2- [DB]3- | [DB]3 z3 |] %17
w: ||||
V:2
 x6 | x6 | x6 | x6 | x6 | x6 | x6 | x6 | [B,D]/[CE]/[DF]<[DF] [DF] D2 | DCD E D2 | x6 | x6 | x6 | %13
 z G2 z3 | x6 | x6 | x6 |] %17
V:3
 [B,,F,] [B,,B,]2 [B,,B,] [B,,B,]2 | [B,,B,][B,,B,]>[B,,B,] [B,,B,] [B,,F,]2 | %2
 [D,B,][E,G,]>[E,G,] [E,G,][E,B,][E,B,] | [E,B,] [B,,B,]2- [B,,B,]2- [B,,B,]/ z/ | %4
 [B,,F,] [B,,B,]2 [B,,B,] [B,,B,]2 | [B,,B,][D,B,][D,B,] [F,A,]B,B, | %6
 [F,A,][G,B,]<[G,B,] [D,B,][F,A,]F, | F, [B,,F,]2- [B,,F,]2- [B,,F,]/ z/ | %8
 [B,,F,][B,,B,]<[B,,B,] [B,,B,] [B,,B,]2 | [B,,B,][F,A,][F,B,] [F,C] [B,,B,]2 | %10
 [B,,B,][G,B,]<[G,B,] [G,B,][G,D][G,D] | [E,C] [D,A,]2- [D,A,]2- [D,A,]/ z/ | %12
 [B,,B,][B,,B,]>[B,,B,] [B,,B,] [B,,F,]2 | [D,B,]/[D,B,]/ [E,B,]2 [E,B,] [B,,B,]2 | %14
 [B,,B,][B,,B,][D,B,] [E,B,] [F,B,]2 | [F,B,]/[F,A,]/ [B,,B,]2- [B,,B,]3- | [B,,B,]3 z3 |] %17

